svg/go.svg

<?xml version="1.0" encoding="UTF-8"?>
<svg xmlns="http://www.w3.org/2000/svg" xmlns:xlink="http://www.w3.org/1999/xlink" width="36.195999" height="32" viewBox="0 0 36.195999 32">
<path fill-rule="nonzero" fill="rgb(0%, 67.45098%, 84.313725%)" fill-opacity="1" d="M 5.71875 14.378906 C 5.660156 14.378906 5.644531 14.351562 5.675781 14.308594 L 5.972656 13.921875 C 6 13.882812 6.074219 13.851562 6.128906 13.851562 L 11.207031 13.851562 C 11.265625 13.851562 11.277344 13.894531 11.25 13.9375 L 11.007812 14.308594 C 10.980469 14.351562 10.910156 14.394531 10.867188 14.394531 Z M 3.570312 15.6875 C 3.511719 15.6875 3.5 15.660156 3.527344 15.617188 L 3.824219 15.230469 C 3.855469 15.1875 3.925781 15.160156 3.980469 15.160156 L 10.46875 15.160156 C 10.523438 15.160156 10.554688 15.203125 10.539062 15.246094 L 10.425781 15.585938 C 10.410156 15.644531 10.355469 15.671875 10.296875 15.671875 Z M 7.011719 16.996094 C 6.953125 16.996094 6.941406 16.953125 6.96875 16.910156 L 7.167969 16.554688 C 7.195312 16.511719 7.253906 16.46875 7.308594 16.46875 L 10.15625 16.46875 C 10.210938 16.46875 10.238281 16.511719 10.238281 16.570312 L 10.210938 16.910156 C 10.210938 16.964844 10.167969 17.007812 10.113281 17.011719 Z M 21.773438 14.121094 C 20.878906 14.351562 20.265625 14.519531 19.386719 14.75 C 19.171875 14.804688 19.15625 14.820312 18.972656 14.605469 C 18.757812 14.363281 18.601562 14.207031 18.304688 14.066406 C 17.40625 13.625 16.539062 13.753906 15.730469 14.277344 C 14.761719 14.90625 14.265625 15.828125 14.277344 16.980469 C 14.292969 18.117188 15.074219 19.058594 16.199219 19.214844 C 17.167969 19.34375 17.976562 19 18.617188 18.277344 C 18.746094 18.117188 18.859375 17.949219 19 17.75 L 16.257812 17.75 C 15.957031 17.75 15.886719 17.5625 15.984375 17.324219 C 16.207031 16.796875 16.449219 16.28125 16.710938 15.773438 C 16.773438 15.632812 16.914062 15.542969 17.066406 15.542969 L 22.242188 15.542969 C 22.214844 15.929688 22.214844 16.3125 22.160156 16.695312 C 22.011719 17.707031 21.609375 18.667969 20.992188 19.484375 C 19.96875 20.835938 18.632812 21.675781 16.9375 21.902344 C 15.542969 22.085938 14.25 21.816406 13.113281 20.964844 C 12.058594 20.167969 11.464844 19.113281 11.308594 17.804688 C 11.121094 16.257812 11.578125 14.863281 12.515625 13.640625 C 13.523438 12.316406 14.863281 11.476562 16.496094 11.179688 C 17.835938 10.9375 19.113281 11.09375 20.265625 11.875 C 21.003906 12.367188 21.578125 13.066406 21.917969 13.882812 C 22 14.007812 21.945312 14.078125 21.773438 14.121094 M 26.480469 21.988281 C 25.1875 21.960938 24.007812 21.589844 23.011719 20.734375 C 22.171875 20.011719 21.644531 19.085938 21.476562 17.992188 C 21.21875 16.382812 21.660156 14.960938 22.628906 13.695312 C 23.664062 12.332031 24.917969 11.621094 26.609375 11.320312 C 28.058594 11.066406 29.425781 11.207031 30.664062 12.046875 C 31.785156 12.8125 32.484375 13.851562 32.667969 15.21875 C 32.910156 17.136719 32.355469 18.703125 31.03125 20.039062 C 30.09375 20.992188 28.941406 21.589844 27.621094 21.859375 C 27.234375 21.929688 26.851562 21.945312 26.480469 21.988281 M 29.867188 16.242188 C 29.851562 16.058594 29.851562 15.914062 29.824219 15.773438 C 29.566406 14.363281 28.273438 13.566406 26.921875 13.882812 C 25.601562 14.179688 24.746094 15.019531 24.433594 16.355469 C 24.179688 17.464844 24.71875 18.589844 25.742188 19.042969 C 26.523438 19.386719 27.308594 19.34375 28.058594 18.957031 C 29.183594 18.375 29.796875 17.464844 29.867188 16.242188 M 29.867188 16.242188 "/>
</svg>

<svg role="img" viewBox="0 0 36.196 32" height="32" width="36.196" xmlns="http://www.w3.org/2000/svg"><path d="M5.719 14.379c-.059 0-.074-.027-.043-.07l.297-.387c.027-.04.101-.07.156-.07h5.078c.059 0 .07.043.043.085l-.242.372c-.028.043-.098.086-.14.086ZM3.57 15.688c-.058 0-.07-.028-.043-.07l.297-.388c.031-.043.102-.07.156-.07h6.489c.054 0 .086.043.07.086l-.113.34c-.016.059-.07.086-.13.086Zm3.442 1.308c-.059 0-.07-.043-.043-.086l.199-.355c.027-.043.086-.086.14-.086h2.848c.055 0 .082.043.082.101l-.027.34a.103.103 0 0 1-.098.102Zm14.761-2.875c-.894.23-1.507.399-2.386.629-.215.055-.23.07-.414-.145-.215-.242-.371-.398-.668-.539-.899-.441-1.766-.312-2.575.211-.968.63-1.464 1.551-1.453 2.703.016 1.137.797 2.079 1.922 2.235.969.129 1.778-.215 2.418-.938.13-.16.242-.328.383-.527h-2.742c-.301 0-.371-.187-.274-.426a22.4 22.4 0 0 1 .727-1.55.39.39 0 0 1 .355-.231h5.176c-.027.387-.027.77-.082 1.152a6.097 6.097 0 0 1-1.168 2.79c-1.023 1.35-2.36 2.19-4.055 2.417-1.394.184-2.687-.086-3.824-.937-1.054-.797-1.648-1.852-1.804-3.16-.188-1.547.27-2.942 1.207-4.164 1.007-1.325 2.347-2.164 3.98-2.461 1.34-.242 2.617-.086 3.77.695a4.484 4.484 0 0 1 1.652 2.008c.082.125.027.195-.145.238m4.707 7.867c-1.293-.027-2.472-.398-3.468-1.254-.84-.722-1.367-1.648-1.535-2.742-.258-1.61.183-3.031 1.152-4.297 1.035-1.363 2.289-2.074 3.98-2.375 1.45-.254 2.817-.113 4.055.727 1.121.765 1.82 1.805 2.004 3.172.242 1.918-.313 3.484-1.637 4.82-.937.953-2.09 1.55-3.41 1.82-.387.07-.77.086-1.14.13m3.386-5.747c-.015-.183-.015-.328-.043-.469-.258-1.41-1.55-2.207-2.902-1.89-1.32.297-2.176 1.137-2.488 2.472-.254 1.11.285 2.235 1.308 2.688.781.344 1.567.3 2.317-.086 1.125-.582 1.738-1.492 1.808-2.715m0 0" fill="rgb(0%, 67.45098%, 84.313725%)"/></svg>
